ligands/tetradentate/porphin.svg

<svg height="256" viewBox="0 0 256 256" width="256" xmlns="http://www.w3.org/2000/svg"><path d="m0 0h256v256h-256z" fill="#fff"/><ellipse cx="127.3" cy="128.7" fill="#ff7f7f" fill-rule="evenodd" rx="11.4" ry="11.4" stroke="#ff7f7f"/><g fill="none" stroke="#000" stroke-width="2"><path d="m145.4 242.8-37.8-.4"/><path d="m141.1 236.7-29.1-.3"/><path d="m107.6 242.4-11.6-36.1"/><path d="m96 206.3-35.8-12.4"/><path d="m95 199.5-30-10.4"/><path d="m60.2 193.9-11.6-36.1"/><path d="m48.6 157.8 14.8-19.8"/><path d="m65.7 119-16.4-23"/><path d="m49.3 96-36.1 11.6"/><path d="m47 103.1-27.8 8.9"/><path d="m13.2 107.6-.4 37.8"/><path d="m49.3 96 12.4-35.8"/><path d="m61.7 60.2 36.1-11.6"/><path d="m66.5 65 30.2-9.7"/><path d="m97.8 48.6 22.5 16.9"/><path d="m136.6 65.7 23-16.4"/><path d="m140.1 70.7 20.5-14.6"/><path d="m159.6 49.3 35.8 12.4"/><path d="m195.4 61.7 11.6 36.1"/><path d="m190.6 66.5 9.7 30.2"/><path d="m207 97.8-16.8 22.5"/><path d="m192.2 139.9 14.1 19.7"/><path d="m206.3 159.6-12.4 35.8"/><path d="m199.5 160.6-10.4 30"/><path d="m193.9 195.4-36.1 11.6"/><path d="m157.8 207-22.5-16.8"/><path d="m150.6 209.2-18.9-14.2"/><path d="m206.3 159.6 36.1-11.6"/><path d="m242.4 148 .4-37.8"/><path d="m236.4 143.6.3-29.1"/><path d="m159.6 49.3-11.6-36.1"/><path d="m148 13.2-37.8-.4"/><path d="m143.6 19.2-29.1-.3"/><path d="m157.8 207-12.4 35.8"/><path d="m119 189.9-23 16.4"/><path d="m12.8 145.4 35.8 12.4"/><path d="m18.9 141.1 27.5 9.5"/><path d="m110.2 12.8-12.4 35.8"/><path d="m242.8 110.2-35.8-12.4"/><path d="m127.2 175.9.1-34.5"/><path d="m79.7 127.4 39.5 1.1"/><path d="m128.2 84.3-.7 36.3"/><path d="m175.9 128.5-40.4.2"/><path d="m143.5 242.8h1.9l.6-1.8" stroke-miterlimit="10"/><path d="m109.5 242.4h-1.9l-.6-1.8" stroke-miterlimit="10"/><path d="m62 194.5-1.8-.6-.6-1.8" stroke-miterlimit="10"/><path d="m15 107-1.8.6v1.9" stroke-miterlimit="10"/><path d="m12.8 143.5v1.9l1.8.6" stroke-miterlimit="10"/><path d="m61.1 62 .6-1.8 1.8-.6" stroke-miterlimit="10"/><path d="m193.6 61.1 1.8.6.6 1.8" stroke-miterlimit="10"/><path d="m194.5 193.6-.6 1.8-1.8.6" stroke-miterlimit="10"/><path d="m240.6 148.6 1.8-.6v-1.9" stroke-miterlimit="10"/><path d="m242.8 112.1v-1.9l-1.8-.6" stroke-miterlimit="10"/><path d="m148.6 15-.6-1.8h-1.9" stroke-miterlimit="10"/><path d="m112.1 12.8h-1.9l-.6 1.8" stroke-miterlimit="10"/></g><text font-family="sans-serif" font-size="22" x="64.7" y="138.5">N</text><text font-family="sans-serif" font-size="22" x="121.6" y="82.9">N</text><text font-family="sans-serif" font-size="22" x="177.2" y="139.8">N</text><text font-family="sans-serif" font-size="22" x="120.3" y="195.4">N</text><text x="120.5" y="140.1"/></svg>

<?xml version='1.0' encoding='iso-8859-1'?>
<svg version='1.1' baseProfile='full'
              xmlns='http://www.w3.org/2000/svg'
                      xmlns:rdkit='http://www.rdkit.org/xml'
                      xmlns:xlink='http://www.w3.org/1999/xlink'
                  xml:space='preserve'
width='256px' height='256px' viewBox='0 0 256 256'>
<!-- END OF HEADER -->
<rect style='opacity:1.0;fill:#FFFFFF;stroke:none' width='256.0' height='256.0' x='0.0' y='0.0'> </rect>
<ellipse cx='127.3' cy='128.7' rx='11.4' ry='11.4' class='atom-20'  style='fill:#FF7F7F;fill-rule:evenodd;stroke:#FF7F7F;stroke-width:1.0px;stroke-linecap:butt;stroke-linejoin:miter;stroke-opacity:1' />
<path class='bond-0 atom-0 atom-1' d='M 145.4,242.8 L 107.6,242.4' style='fill:none;fill-rule:evenodd;stroke:#000000;stroke-width:2.0px;stroke-linecap:butt;stroke-linejoin:miter;stroke-opacity:1' />
<path class='bond-0 atom-0 atom-1' d='M 141.1,236.7 L 112.0,236.4' style='fill:none;fill-rule:evenodd;stroke:#000000;stroke-width:2.0px;stroke-linecap:butt;stroke-linejoin:miter;stroke-opacity:1' />
<path class='bond-1 atom-1 atom-2' d='M 107.6,242.4 L 96.0,206.3' style='fill:none;fill-rule:evenodd;stroke:#000000;stroke-width:2.0px;stroke-linecap:butt;stroke-linejoin:miter;stroke-opacity:1' />
<path class='bond-2 atom-2 atom-3' d='M 96.0,206.3 L 60.2,193.9' style='fill:none;fill-rule:evenodd;stroke:#000000;stroke-width:2.0px;stroke-linecap:butt;stroke-linejoin:miter;stroke-opacity:1' />
<path class='bond-2 atom-2 atom-3' d='M 95.0,199.5 L 65.0,189.1' style='fill:none;fill-rule:evenodd;stroke:#000000;stroke-width:2.0px;stroke-linecap:butt;stroke-linejoin:miter;stroke-opacity:1' />
<path class='bond-3 atom-3 atom-4' d='M 60.2,193.9 L 48.6,157.8' style='fill:none;fill-rule:evenodd;stroke:#000000;stroke-width:2.0px;stroke-linecap:butt;stroke-linejoin:miter;stroke-opacity:1' />
<path class='bond-4 atom-4 atom-5' d='M 48.6,157.8 L 63.4,138.0' style='fill:none;fill-rule:evenodd;stroke:#000000;stroke-width:2.0px;stroke-linecap:butt;stroke-linejoin:miter;stroke-opacity:1' />
<path class='bond-5 atom-5 atom-6' d='M 65.7,119.0 L 49.3,96.0' style='fill:none;fill-rule:evenodd;stroke:#000000;stroke-width:2.0px;stroke-linecap:butt;stroke-linejoin:miter;stroke-opacity:1' />
<path class='bond-6 atom-6 atom-7' d='M 49.3,96.0 L 13.2,107.6' style='fill:none;fill-rule:evenodd;stroke:#000000;stroke-width:2.0px;stroke-linecap:butt;stroke-linejoin:miter;stroke-opacity:1' />
<path class='bond-6 atom-6 atom-7' d='M 47.0,103.1 L 19.2,112.0' style='fill:none;fill-rule:evenodd;stroke:#000000;stroke-width:2.0px;stroke-linecap:butt;stroke-linejoin:miter;stroke-opacity:1' />
<path class='bond-7 atom-7 atom-8' d='M 13.2,107.6 L 12.8,145.4' style='fill:none;fill-rule:evenodd;stroke:#000000;stroke-width:2.0px;stroke-linecap:butt;stroke-linejoin:miter;stroke-opacity:1' />
<path class='bond-8 atom-6 atom-9' d='M 49.3,96.0 L 61.7,60.2' style='fill:none;fill-rule:evenodd;stroke:#000000;stroke-width:2.0px;stroke-linecap:butt;stroke-linejoin:miter;stroke-opacity:1' />
<path class='bond-9 atom-9 atom-10' d='M 61.7,60.2 L 97.8,48.6' style='fill:none;fill-rule:evenodd;stroke:#000000;stroke-width:2.0px;stroke-linecap:butt;stroke-linejoin:miter;stroke-opacity:1' />
<path class='bond-9 atom-9 atom-10' d='M 66.5,65.0 L 96.7,55.3' style='fill:none;fill-rule:evenodd;stroke:#000000;stroke-width:2.0px;stroke-linecap:butt;stroke-linejoin:miter;stroke-opacity:1' />
<path class='bond-10 atom-10 atom-11' d='M 97.8,48.6 L 120.3,65.5' style='fill:none;fill-rule:evenodd;stroke:#000000;stroke-width:2.0px;stroke-linecap:butt;stroke-linejoin:miter;stroke-opacity:1' />
<path class='bond-11 atom-11 atom-12' d='M 136.6,65.7 L 159.6,49.3' style='fill:none;fill-rule:evenodd;stroke:#000000;stroke-width:2.0px;stroke-linecap:butt;stroke-linejoin:miter;stroke-opacity:1' />
<path class='bond-11 atom-11 atom-12' d='M 140.1,70.7 L 160.6,56.1' style='fill:none;fill-rule:evenodd;stroke:#000000;stroke-width:2.0px;stroke-linecap:butt;stroke-linejoin:miter;stroke-opacity:1' />
<path class='bond-12 atom-12 atom-13' d='M 159.6,49.3 L 195.4,61.7' style='fill:none;fill-rule:evenodd;stroke:#000000;stroke-width:2.0px;stroke-linecap:butt;stroke-linejoin:miter;stroke-opacity:1' />
<path class='bond-13 atom-13 atom-14' d='M 195.4,61.7 L 207.0,97.8' style='fill:none;fill-rule:evenodd;stroke:#000000;stroke-width:2.0px;stroke-linecap:butt;stroke-linejoin:miter;stroke-opacity:1' />
<path class='bond-13 atom-13 atom-14' d='M 190.6,66.5 L 200.3,96.7' style='fill:none;fill-rule:evenodd;stroke:#000000;stroke-width:2.0px;stroke-linecap:butt;stroke-linejoin:miter;stroke-opacity:1' />
<path class='bond-14 atom-14 atom-15' d='M 207.0,97.8 L 190.2,120.3' style='fill:none;fill-rule:evenodd;stroke:#000000;stroke-width:2.0px;stroke-linecap:butt;stroke-linejoin:miter;stroke-opacity:1' />
<path class='bond-15 atom-15 atom-16' d='M 192.2,139.9 L 206.3,159.6' style='fill:none;fill-rule:evenodd;stroke:#000000;stroke-width:2.0px;stroke-linecap:butt;stroke-linejoin:miter;stroke-opacity:1' />
<path class='bond-16 atom-16 atom-17' d='M 206.3,159.6 L 193.9,195.4' style='fill:none;fill-rule:evenodd;stroke:#000000;stroke-width:2.0px;stroke-linecap:butt;stroke-linejoin:miter;stroke-opacity:1' />
<path class='bond-16 atom-16 atom-17' d='M 199.5,160.6 L 189.1,190.6' style='fill:none;fill-rule:evenodd;stroke:#000000;stroke-width:2.0px;stroke-linecap:butt;stroke-linejoin:miter;stroke-opacity:1' />
<path class='bond-17 atom-17 atom-18' d='M 193.9,195.4 L 157.8,207.0' style='fill:none;fill-rule:evenodd;stroke:#000000;stroke-width:2.0px;stroke-linecap:butt;stroke-linejoin:miter;stroke-opacity:1' />
<path class='bond-18 atom-18 atom-19' d='M 157.8,207.0 L 135.3,190.2' style='fill:none;fill-rule:evenodd;stroke:#000000;stroke-width:2.0px;stroke-linecap:butt;stroke-linejoin:miter;stroke-opacity:1' />
<path class='bond-18 atom-18 atom-19' d='M 150.6,209.2 L 131.7,195.0' style='fill:none;fill-rule:evenodd;stroke:#000000;stroke-width:2.0px;stroke-linecap:butt;stroke-linejoin:miter;stroke-opacity:1' />
<path class='bond-19 atom-16 atom-21' d='M 206.3,159.6 L 242.4,148.0' style='fill:none;fill-rule:evenodd;stroke:#000000;stroke-width:2.0px;stroke-linecap:butt;stroke-linejoin:miter;stroke-opacity:1' />
<path class='bond-20 atom-21 atom-22' d='M 242.4,148.0 L 242.8,110.2' style='fill:none;fill-rule:evenodd;stroke:#000000;stroke-width:2.0px;stroke-linecap:butt;stroke-linejoin:miter;stroke-opacity:1' />
<path class='bond-20 atom-21 atom-22' d='M 236.4,143.6 L 236.7,114.5' style='fill:none;fill-rule:evenodd;stroke:#000000;stroke-width:2.0px;stroke-linecap:butt;stroke-linejoin:miter;stroke-opacity:1' />
<path class='bond-21 atom-12 atom-23' d='M 159.6,49.3 L 148.0,13.2' style='fill:none;fill-rule:evenodd;stroke:#000000;stroke-width:2.0px;stroke-linecap:butt;stroke-linejoin:miter;stroke-opacity:1' />
<path class='bond-22 atom-23 atom-24' d='M 148.0,13.2 L 110.2,12.8' style='fill:none;fill-rule:evenodd;stroke:#000000;stroke-width:2.0px;stroke-linecap:butt;stroke-linejoin:miter;stroke-opacity:1' />
<path class='bond-22 atom-23 atom-24' d='M 143.6,19.2 L 114.5,18.9' style='fill:none;fill-rule:evenodd;stroke:#000000;stroke-width:2.0px;stroke-linecap:butt;stroke-linejoin:miter;stroke-opacity:1' />
<path class='bond-23 atom-18 atom-0' d='M 157.8,207.0 L 145.4,242.8' style='fill:none;fill-rule:evenodd;stroke:#000000;stroke-width:2.0px;stroke-linecap:butt;stroke-linejoin:miter;stroke-opacity:1' />
<path class='bond-24 atom-19 atom-2' d='M 119.0,189.9 L 96.0,206.3' style='fill:none;fill-rule:evenodd;stroke:#000000;stroke-width:2.0px;stroke-linecap:butt;stroke-linejoin:miter;stroke-opacity:1' />
<path class='bond-25 atom-8 atom-4' d='M 12.8,145.4 L 48.6,157.8' style='fill:none;fill-rule:evenodd;stroke:#000000;stroke-width:2.0px;stroke-linecap:butt;stroke-linejoin:miter;stroke-opacity:1' />
<path class='bond-25 atom-8 atom-4' d='M 18.9,141.1 L 46.4,150.6' style='fill:none;fill-rule:evenodd;stroke:#000000;stroke-width:2.0px;stroke-linecap:butt;stroke-linejoin:miter;stroke-opacity:1' />
<path class='bond-26 atom-24 atom-10' d='M 110.2,12.8 L 97.8,48.6' style='fill:none;fill-rule:evenodd;stroke:#000000;stroke-width:2.0px;stroke-linecap:butt;stroke-linejoin:miter;stroke-opacity:1' />
<path class='bond-27 atom-22 atom-14' d='M 242.8,110.2 L 207.0,97.8' style='fill:none;fill-rule:evenodd;stroke:#000000;stroke-width:2.0px;stroke-linecap:butt;stroke-linejoin:miter;stroke-opacity:1' />
<path class='bond-28 atom-19 atom-20' d='M 127.2,175.9 L 127.3,141.4' style='fill:none;fill-rule:evenodd;stroke:#000000;stroke-width:2.0px;stroke-linecap:butt;stroke-linejoin:miter;stroke-opacity:1' />
<path class='bond-29 atom-5 atom-20' d='M 79.7,127.4 L 119.2,128.5' style='fill:none;fill-rule:evenodd;stroke:#000000;stroke-width:2.0px;stroke-linecap:butt;stroke-linejoin:miter;stroke-opacity:1' />
<path class='bond-30 atom-11 atom-20' d='M 128.2,84.3 L 127.5,120.6' style='fill:none;fill-rule:evenodd;stroke:#000000;stroke-width:2.0px;stroke-linecap:butt;stroke-linejoin:miter;stroke-opacity:1' />
<path class='bond-31 atom-15 atom-20' d='M 175.9,128.5 L 135.5,128.7' style='fill:none;fill-rule:evenodd;stroke:#000000;stroke-width:2.0px;stroke-linecap:butt;stroke-linejoin:miter;stroke-opacity:1' />
<path d='M 143.5,242.8 L 145.4,242.8 L 146.0,241.0' style='fill:none;stroke:#000000;stroke-width:2.0px;stroke-linecap:butt;stroke-linejoin:miter;stroke-miterlimit:10;stroke-opacity:1;' />
<path d='M 109.5,242.4 L 107.6,242.4 L 107.0,240.6' style='fill:none;stroke:#000000;stroke-width:2.0px;stroke-linecap:butt;stroke-linejoin:miter;stroke-miterlimit:10;stroke-opacity:1;' />
<path d='M 62.0,194.5 L 60.2,193.9 L 59.6,192.1' style='fill:none;stroke:#000000;stroke-width:2.0px;stroke-linecap:butt;stroke-linejoin:miter;stroke-miterlimit:10;stroke-opacity:1;' />
<path d='M 15.0,107.0 L 13.2,107.6 L 13.2,109.5' style='fill:none;stroke:#000000;stroke-width:2.0px;stroke-linecap:butt;stroke-linejoin:miter;stroke-miterlimit:10;stroke-opacity:1;' />
<path d='M 12.8,143.5 L 12.8,145.4 L 14.6,146.0' style='fill:none;stroke:#000000;stroke-width:2.0px;stroke-linecap:butt;stroke-linejoin:miter;stroke-miterlimit:10;stroke-opacity:1;' />
<path d='M 61.1,62.0 L 61.7,60.2 L 63.5,59.6' style='fill:none;stroke:#000000;stroke-width:2.0px;stroke-linecap:butt;stroke-linejoin:miter;stroke-miterlimit:10;stroke-opacity:1;' />
<path d='M 193.6,61.1 L 195.4,61.7 L 196.0,63.5' style='fill:none;stroke:#000000;stroke-width:2.0px;stroke-linecap:butt;stroke-linejoin:miter;stroke-miterlimit:10;stroke-opacity:1;' />
<path d='M 194.5,193.6 L 193.9,195.4 L 192.1,196.0' style='fill:none;stroke:#000000;stroke-width:2.0px;stroke-linecap:butt;stroke-linejoin:miter;stroke-miterlimit:10;stroke-opacity:1;' />
<path d='M 240.6,148.6 L 242.4,148.0 L 242.4,146.1' style='fill:none;stroke:#000000;stroke-width:2.0px;stroke-linecap:butt;stroke-linejoin:miter;stroke-miterlimit:10;stroke-opacity:1;' />
<path d='M 242.8,112.1 L 242.8,110.2 L 241.0,109.6' style='fill:none;stroke:#000000;stroke-width:2.0px;stroke-linecap:butt;stroke-linejoin:miter;stroke-miterlimit:10;stroke-opacity:1;' />
<path d='M 148.6,15.0 L 148.0,13.2 L 146.1,13.2' style='fill:none;stroke:#000000;stroke-width:2.0px;stroke-linecap:butt;stroke-linejoin:miter;stroke-miterlimit:10;stroke-opacity:1;' />
<path d='M 112.1,12.8 L 110.2,12.8 L 109.6,14.6' style='fill:none;stroke:#000000;stroke-width:2.0px;stroke-linecap:butt;stroke-linejoin:miter;stroke-miterlimit:10;stroke-opacity:1;' />
<text x='64.7' y='138.5' class='atom-5' style='font-size:22px;font-style:normal;font-weight:normal;fill-opacity:1;stroke:none;font-family:sans-serif;text-anchor:start;fill:#000000' >N</text>
<text x='121.6' y='82.9' class='atom-11' style='font-size:22px;font-style:normal;font-weight:normal;fill-opacity:1;stroke:none;font-family:sans-serif;text-anchor:start;fill:#000000' >N</text>
<text x='177.2' y='139.8' class='atom-15' style='font-size:22px;font-style:normal;font-weight:normal;fill-opacity:1;stroke:none;font-family:sans-serif;text-anchor:start;fill:#000000' >N</text>
<text x='120.3' y='195.4' class='atom-19' style='font-size:22px;font-style:normal;font-weight:normal;fill-opacity:1;stroke:none;font-family:sans-serif;text-anchor:start;fill:#000000' >N</text>
<text x='120.5' y='140.1' class='atom-20' style='font-size:22px;font-style:normal;font-weight:normal;fill-opacity:1;stroke:none;font-family:sans-serif;text-anchor:start;fill:#000000' ></text>
</svg>
